while (True):
	movej(p[-0.45,0,0.6,-1.53072212553997,-1.53072212553997,0.963182359881002],a=1,v=1)
	sleep(2.0)
	movej(p[-0.412696516925272,0.0626666167821521,0.589466472883238,-1.44215938122218,-1.58975456109854,0.974795580980374],a=1,v=1)
	sleep(2.0)
	movej(p[-0.377736948884743,0.124344943582427,0.559345294113212,-1.34978442979432,-1.63000203017251,0.993515572176616],a=1,v=1)
	sleep(2.0)
	movej(p[-0.347317934110697,0.184062276342339,0.513866893734761,-1.2577424926619,-1.65394140752297,1.01684528530684],a=1,v=1)
	sleep(2.0)
	movej(p[-0.323350811174698,0.240876837050858,0.459418577929397,-1.16960751443499,-1.66571284439457,1.04186006191528],a=1,v=1)
	sleep(2.0)
	movej(p[-0.307341522555727,0.293892626146237,0.403647450843758,-1.088315426627,-1.67051021986528,1.06558039564386],a=1,v=1)
	sleep(2.0)
	movej(p[-0.300295990735759,0.342273552964344,0.354386401537697,-1.01608197764041,-1.67386138340284,1.08533125382978],a=1,v=1)
	sleep(2.0)
	movej(p[-0.302656912390697,0.385256621387895,0.31855399799342,-0.954329433397444,-1.68087157277488,1.09900419482804],a=1,v=1)
	sleep(2.0)
	movej(p[-0.314275942130097,0.422163962751008,0.301182794802828,-0.903688791616502,-1.69555396597372,1.10517931968724],a=1,v=1)
	sleep(2.0)
	movej(p[-0.334423013583632,0.45241352623301,0.304712525830705,-0.864108469006057,-1.72032836074886,1.10314804157811],a=1,v=1)
	sleep(2.0)
	movej(p[-0.361832212156129,0.475528258147577,0.328647450843758,-0.835052828850413,-1.75569512147581,1.09292619870992],a=1,v=1)
	sleep(2.0)
	movej(p[-0.394781317097298,0.491143625364344,0.369625980753151,-0.815761618977464,-1.80008392505377,1.0753172863948],a=1,v=1)
	sleep(2.0)
	movej(p[-0.431200014965354,0.499013364214136,0.421892802812141,-0.805548629550795,-1.84994072678356,1.05199665721655],a=1,v=1)
	sleep(2.0)
	movej(p[-0.468799985034646,0.499013364214136,0.478107197187859,-0.804098675471299,-1.90014702542518,1.02550282146105],a=1,v=1)
	sleep(2.0)
	movej(p[-0.505218682902702,0.491143625364344,0.53037401924685,-0.811664952212389,-1.94475964538884,0.99902058629705],a=1,v=1)
	sleep(2.0)
	movej(p[-0.538167787843871,0.475528258147577,0.571352549156242,-0.829029066351554,-1.97786915556646,0.975950716375345],a=1,v=1)
	sleep(2.0)
	movej(p[-0.565576986416368,0.45241352623301,0.595287474169295,-0.857136064724314,-1.9943048481376,0.959393261988565],a=1,v=1)
	sleep(2.0)
	movej(p[-0.585724057869903,0.422163962751007,0.598817205197172,-0.896460051559635,-1.99007824945272,0.951693793326487],a=1,v=1)
	sleep(2.0)
	movej(p[-0.597343087609303,0.385256621387895,0.581446002006579,-0.946324586538606,-1.96271060566481,0.954102992507678],a=1,v=1)
	sleep(2.0)
	movej(p[-0.599704009264241,0.342273552964344,0.545613598462303,-1.00452547024361,-1.91168199915665,0.966510514482624],a=1,v=1)
	sleep(2.0)
	movej(p[-0.592658477444273,0.293892626146237,0.496352549156242,-1.06760738923521,-1.83904353156791,0.987253349396485],a=1,v=1)
	sleep(2.0)
	movej(p[-0.576649188825302,0.240876837050858,0.440581422070603,-1.13190696143439,-1.74982924968512,1.01314913316365],a=1,v=1)
	sleep(2.0)
	movej(p[-0.552682065889303,0.184062276342339,0.386133106265239,-1.19495312571727,-1.65162481130379,1.03998153649692],a=1,v=1)
	sleep(2.0)
	movej(p[-0.522263051115257,0.124344943582427,0.340654705886788,-1.25635917135614,-1.55296653024094,1.06345119449923],a=1,v=1)
	sleep(2.0)
	movej(p[-0.487303483074728,0.062666616782152,0.310533527116762,-1.31755471249181,-1.46114523348082,1.08020440855187],a=1,v=1)
	sleep(2.0)
	movej(p[-0.45,2.83276944882399e-16,0.3,-1.38057360864181,-1.38057360864181,1.08843982981666],a=1,v=1)
	sleep(2.0)
	movej(p[-0.412696516925272,-0.0626666167821519,0.310533527116762,-1.44673840456712,-1.31242105754938,1.08794674121436],a=1,v=1)
	sleep(2.0)
	movej(p[-0.377736948884743,-0.124344943582427,0.340654705886788,-1.51591104503526,-1.2553071024858,1.0798002926285],a=1,v=1)
	sleep(2.0)
	movej(p[-0.347317934110697,-0.184062276342339,0.386133106265239,-1.58644911626863,-1.20641786758657,1.06597055368158],a=1,v=1)
	sleep(2.0)
	movej(p[-0.323350811174698,-0.240876837050858,0.440581422070603,-1.65565909106385,-1.1625481071167,1.04894349510288],a=1,v=1)
	sleep(2.0)
	movej(p[-0.307341522555727,-0.293892626146236,0.496352549156242,-1.72044265613089,-1.12084575181191,1.03135840939594],a=1,v=1)
	sleep(2.0)
	movej(p[-0.300295990735759,-0.342273552964344,0.545613598462303,-1.7778738355551,-1.07922052610686,1.01567795327332],a=1,v=1)
	sleep(2.0)
	movej(p[-0.302656912390697,-0.385256621387894,0.581446002006579,-1.82556218324649,-1.03647878409493,1.00393254216495],a=1,v=1)
	sleep(2.0)
	movej(p[-0.314275942130097,-0.422163962751007,0.598817205197172,-1.86179997533948,-0.992293848329359,0.997562532615629],a=1,v=1)
	sleep(2.0)
	movej(p[-0.334423013583632,-0.45241352623301,0.595287474169295,-1.88559127949062,-0.947118835489379,0.997338826359487],a=1,v=1)
	sleep(2.0)
	movej(p[-0.361832212156129,-0.475528258147577,0.571352549156242,-1.89668297081461,-0.902110201730132,1.00331868759292],a=1,v=1)
	sleep(2.0)
	movej(p[-0.394781317097298,-0.491143625364344,0.53037401924685,-1.89567421335725,-0.859081203836618,1.01480732999991],a=1,v=1)
	sleep(2.0)
	movej(p[-0.431200014965354,-0.499013364214136,0.478107197187859,-1.88419667987412,-0.820465235075793,1.03033731457628],a=1,v=1)
	sleep(2.0)
	movej(p[-0.468799985034645,-0.499013364214136,0.421892802812142,-1.86505371986022,-0.789247992789849,1.04772135625141],a=1,v=1)
	sleep(2.0)
	movej(p[-0.505218682902702,-0.491143625364344,0.369625980753151,-1.84212159441037,-0.768827931740404,1.06424555018917],a=1,v=1)
	sleep(2.0)
	movej(p[-0.538167787843871,-0.475528258147577,0.328647450843758,-1.8198218867592,-0.76278313732741,1.07702523580183],a=1,v=1)
	sleep(2.0)
	movej(p[-0.565576986416368,-0.45241352623301,0.304712525830705,-1.80212413882901,-0.774538353022151,1.08346890232365],a=1,v=1)
	sleep(2.0)
	movej(p[-0.585724057869903,-0.422163962751008,0.301182794802828,-1.79128132087684,-0.806909047778733,1.08175851741538],a=1,v=1)
	sleep(2.0)
	movej(p[-0.597343087609303,-0.385256621387895,0.31855399799342,-1.7867165109508,-0.861468704865177,1.07128559097478],a=1,v=1)
	sleep(2.0)
	movej(p[-0.599704009264241,-0.342273552964344,0.354386401537696,-1.78459761186311,-0.937746840762879,1.05299266364112],a=1,v=1)
	sleep(2.0)
	movej(p[-0.592658477444273,-0.293892626146237,0.403647450843758,-1.77857907262513,-1.03250636957725,1.02947164646549],a=1,v=1)
	sleep(2.0)
	movej(p[-0.576649188825302,-0.240876837050858,0.459418577929397,-1.7617365826006,-1.13960942327263,1.00458911753462],a=1,v=1)
	sleep(2.0)
	movej(p[-0.552682065889303,-0.184062276342339,0.513866893734761,-1.72890197688619,-1.2508632754845,0.98260195481142],a=1,v=1)
	sleep(2.0)
	movej(p[-0.522263051115258,-0.124344943582428,0.559345294113211,-1.67816639287677,-1.35764660583204,0.967120965373138],a=1,v=1)
	sleep(2.0)
	movej(p[-0.487303483074728,-0.0626666167821523,0.589466472883238,-1.61090577944846,-1.45259790228818,0.96040710799256],a=1,v=1)
	sleep(2.0)
	movej(p[-0.45,0,0.6,-1.53072212553997,-1.53072212553997,0.963182359881002],a=1,v=1)
	sleep(2.0)
	movej(p[-0.412696516925272,0.0626666167821521,0.589466472883238,-1.44215938122218,-1.58975456109854,0.974795580980374],a=1,v=1)
	sleep(2.0)
	movej(p[-0.377736948884743,0.124344943582427,0.559345294113212,-1.34978442979432,-1.63000203017251,0.993515572176616],a=1,v=1)
	sleep(2.0)
	movej(p[-0.347317934110697,0.184062276342339,0.513866893734761,-1.2577424926619,-1.65394140752297,1.01684528530684],a=1,v=1)
	sleep(2.0)
	movej(p[-0.323350811174698,0.240876837050858,0.459418577929397,-1.16960751443499,-1.66571284439457,1.04186006191528],a=1,v=1)
	sleep(2.0)
	movej(p[-0.307341522555727,0.293892626146237,0.403647450843758,-1.088315426627,-1.67051021986528,1.06558039564386],a=1,v=1)
	sleep(2.0)
	movej(p[-0.300295990735759,0.342273552964344,0.354386401537697,-1.01608197764041,-1.67386138340284,1.08533125382978],a=1,v=1)
	sleep(2.0)
	movej(p[-0.302656912390697,0.385256621387895,0.31855399799342,-0.954329433397444,-1.68087157277488,1.09900419482804],a=1,v=1)
	sleep(2.0)
	movej(p[-0.314275942130097,0.422163962751008,0.301182794802828,-0.903688791616502,-1.69555396597372,1.10517931968724],a=1,v=1)
	sleep(2.0)
	movej(p[-0.334423013583632,0.45241352623301,0.304712525830705,-0.864108469006057,-1.72032836074886,1.10314804157811],a=1,v=1)
	sleep(2.0)
	halt
end